usr/share/icons/biglinux-icons-material/scalable/mimetypes/text-x-fortran.svg

<svg width="24" height="24" viewBox="0 0 24 24" fill="none" xmlns="http://www.w3.org/2000/svg">
<rect x="1" y="1" width="22" height="22" rx="6.6" fill="url(#paint0_radial_21_1423)"/>
<path d="M5 4V5.14287H5.85714C6.25385 5.14287 6.57763 5.11656 6.89285 5.21764C7.20808 5.31873 7.46197 5.59491 7.59124 6.00699C7.84981 6.83115 7.85588 8.31471 7.85659 11.4357C7.85617 12.6235 7.8486 13.5177 7.83121 14.2858H7.84439L7.83985 14.5759C7.82063 15.7903 7.78549 17.0217 7.7157 17.445C7.64591 17.8683 7.50169 18.0911 7.3658 18.2478C7.21273 18.4243 7.03239 18.5812 6.79103 18.6841C6.54966 18.787 6.26084 18.8378 5.87112 18.8569C5.46863 18.8765 5.2039 18.8629 5.00002 18.8569V20H13.0002V18.8569C12.7917 18.8618 12.5143 18.8731 12.131 18.8569C11.4182 18.8267 11.009 18.6093 10.6929 18.2932C10.4803 18.0806 10.332 17.7919 10.2591 17.3354C10.1861 16.8788 10.1605 15.6549 10.143 14.5762V12.5714H11.0001C12.1707 12.5714 13.1302 12.8298 13.6781 13.5426L13.6971 13.5675L13.7105 13.5959C14.085 14.3982 14.1236 15.2515 14.1301 16H15.2858V8.5714H14.1427L14.1421 8.90149C14.1415 9.7827 13.8234 10.457 13.2548 10.8669C12.6862 11.2768 11.8661 11.7172 11 11.4286H10.1429V5.1428H12.7143C14.9829 5.1428 15.9525 5.12639 16.5738 5.48935L16.5983 5.50382L16.6197 5.52283C17.35 6.17434 17.7443 6.87288 17.94 7.61658C18.1131 8.27425 18.1328 8.96998 18.1364 9.71425H19.2857V4.00002L5 4Z" fill="#AEA795"/>
<defs>
<radialGradient id="paint0_radial_21_1423" cx="0" cy="0" r="1" gradientUnits="userSpaceOnUse" gradientTransform="translate(17.5 1) rotate(116.565) scale(24.5967)">
<stop stop-color="#F4F4F4"/>
<stop offset="1" stop-color="#BBBBBB"/>
</radialGradient>
</defs>
</svg>

<svg xmlns="http://www.w3.org/2000/svg" width="24" height="24" fill="none"><rect width="22" height="22" x="1" y="1" fill="url(#a)" rx="6.6"/><path fill="#AEA795" d="M5 4v1.143h.857c.397 0 .72-.026 1.036.075.315.1.569.377.698.789.259.824.265 2.308.266 5.429 0 1.188-.008 2.082-.026 2.85h.013l-.004.29c-.02 1.214-.055 2.446-.124 2.869-.07.423-.214.646-.35.803a1.57 1.57 0 0 1-.575.436c-.241.103-.53.154-.92.173-.402.02-.667.006-.871 0V20h8v-1.143c-.208.005-.486.016-.869 0-.713-.03-1.122-.248-1.438-.564-.213-.212-.361-.501-.434-.958-.073-.456-.098-1.68-.116-2.759v-2.005H11c1.17 0 2.13.259 2.678.972l.02.025.012.028c.375.802.414 1.655.42 2.404h1.156V8.571h-1.143v.33c-.002.882-.32 1.556-.888 1.966-.569.41-1.389.85-2.255.562h-.857V5.143h2.571c2.269 0 3.239-.017 3.86.346l.024.015.022.019c.73.651 1.124 1.35 1.32 2.094.173.657.193 1.353.196 2.097h1.15V4H5Z"/><defs><radialGradient id="a" cx="0" cy="0" r="1" gradientTransform="rotate(116.565 8.441 5.908) scale(24.5967)" gradientUnits="userSpaceOnUse"><stop stop-color="#F4F4F4"/><stop offset="1" stop-color="#BBB"/></radialGradient></defs></svg>
